T: Fairy Queen, The
M: 4/4
L: 1/8
K: Dmaj
d2 dc dBAG | FDFA dAFA | GABG E2 ef | gece dcBA |d2 dc dBAG | FDFA dAFA | GABG E2 ef | gece d2- :|dfaf gecA | da^ga baga | fdAF G2 ef | gece gecA |dfef gfga | ba^ga baga | fdAF E2 ef | gece d2- :|
